build/system/RefuseSmallOutline.svg

<svg xmlns="http://www.w3.org/2000/svg" fill="none" viewBox="0 0 24 24" focusable="false"><path d="M0 0H24V24H0z"/><path fill="#74767B" fill-rule="evenodd" d="M8.81802 8.81802C7.06066 10.5754 7.06066 13.4246 8.81802 15.182C10.5754 16.9393 13.4246 16.9393 15.182 15.182C16.9393 13.4246 16.9393 10.5754 15.182 8.81802C13.4246 7.06066 10.5754 7.06066 8.81802 8.81802ZM14.2627 9.73726C13.1705 8.64503 11.4852 8.50742 10.2435 9.32442L14.6756 13.7565C15.4926 12.5148 15.355 10.8295 14.2627 9.73726ZM9.73726 14.2627C8.64509 13.1706 8.50743 11.4854 9.32428 10.2437L13.7563 14.6757C12.5147 15.4926 10.8294 15.3549 9.73726 14.2627Z"/></svg>

<svg xmlns="http://www.w3.org/2000/svg" fill="none" viewBox="0 0 24 24" focusable="false"><path fill="#74767B" fill-rule="evenodd" d="M8.81 8.81a4.52 4.52 0 0 0 0 6.37 4.52 4.52 0 0 0 6.37 0 4.52 4.52 0 0 0 0-6.37 4.52 4.52 0 0 0-6.37 0m5.45.92a3.2 3.2 0 0 0-4.02-.41l4.43 4.43a3.2 3.2 0 0 0-.41-4.02m-4.53 4.53a3.2 3.2 0 0 1-.41-4.02l4.43 4.43a3.2 3.2 0 0 1-4.02-.41"/></svg>
